X: 15130
T: Gifted Father T, The
R: reel
M: 4/4
K: Cdorian
|:B2AB FDDC|B,D~D2 FGAF|EFBF dFBF|EFAF cFAF|
B2AB FDDC|B,D~D2 FGAF|EFBF dFBF|1 FGAF BFGA:|2 FGAF B3A||
|:B2Bd fdBd|cA~A2 efga|bf~f2efdf|cfBf AFGA|
B2Bd fdBd|cA~A2 efga|bf~f2efdB|AFGA B3A:|

